X: 1
T: Hm?
Z: ceolachan
S: https://thesession.org/tunes/12830#setting21893
R: barndance
M: 4/4
L: 1/8
K: Cmaj
|: G^F/G/ AG e2 e2 | e^d/e/ fe d4 | FE/F/ GF d2 d2 | d^c/d/ ed =c/d/c/B/ A^G |
[1 G^F/G/ AG e2 e2 | g^f/g/ ag =f4 | fe/f/ gf e^d/e/ fe | d^c/d/ ed =c4 :|
[2 G2 A/G/F/G/ e4 | g2 ag f2 f2 | a^g/a/ ba =gf/g/ ag | fe/f/ AB c2 ||
|: G/[c/e/][e/g/][g/b/] |\
c'c bB aA gG | Gc/e/ ag B4 | GB/d/ ag B/c/B/A/ A/G/^F/=F/ | GB/d/ ag e/f/e/^d/ e/f/g/b/ |
[1 c'c bB aA gG | Gc/e/ ag f4 | a^g/a/ ba =g^f/g/ ag | fe/f/ AB c2 :|
[2 c'2 b2 ab/a/ gc | Gc/e/ ag c'4 | a^g/a/ ba =g^f/g/ a^g | g^f/g/ aB c4 |]
